client/src/assets/shield.svg

<svg width="24" height="24" viewBox="0 0 24 24" fill="none" xmlns="http://www.w3.org/2000/svg">
<path d="M12 1L3 5V11C3 16.55 6.84 21.74 12 23C17.16 21.74 21 16.55 21 11V5L12 1ZM19 11C19 12.85 18.49 14.65 17.62 16.21L16.17 14.76C17.46 12.82 17.24 10.18 15.53 8.47C13.58 6.52 10.41 6.52 8.46 8.47C6.51 10.42 6.51 13.59 8.46 15.54C10.17 17.25 12.81 17.46 14.75 16.18L16.47 17.9C15.28 19.32 13.74 20.41 12 20.94C7.98 19.69 5 15.52 5 11V6.3L12 3.19L19 6.3V11ZM12 15C10.34 15 9 13.66 9 12C9 10.34 10.34 9 12 9C13.66 9 15 10.34 15 12C15 13.66 13.66 15 12 15Z" fill="black"/>
</svg>

<?xml version="1.0" encoding="utf-8"?>
<!-- Generator: Adobe Illustrator 25.2.3, SVG Export Plug-In . SVG Version: 6.00 Build 0)  -->
<svg version="1.1" id="Layer_1" xmlns="http://www.w3.org/2000/svg" xmlns:xlink="http://www.w3.org/1999/xlink" x="0px" y="0px"
	 viewBox="0 0 24 24" style="enable-background:new 0 0 24 24;" xml:space="preserve">
<style type="text/css">
	.st0{fill:#FBBC05;}
</style>
<path class="st0" d="M12,1L3,5v6c0,5.5,3.8,10.7,9,12c5.2-1.3,9-6.5,9-12V5L12,1z M19,11c0,1.9-0.5,3.6-1.4,5.2l-1.5-1.4
	c1.3-1.9,1.1-4.6-0.6-6.3c-1.9-2-5.1-2-7.1,0s-1.9,5.1,0,7.1c1.7,1.7,4.4,1.9,6.3,0.6l1.7,1.7c-1.2,1.4-2.7,2.5-4.5,3
	c-4-1.2-7-5.4-7-9.9V6.3l7-3.1l7,3.1V11z M12,15c-1.7,0-3-1.3-3-3s1.3-3,3-3s3,1.3,3,3S13.7,15,12,15z"/>
</svg>
